;FLAVOR:Marlin
;TIME:18402
;Filament used: 14.1508m
;Layer height: 0.2
;MINX:30.4
;MINY:54.45
;MINZ:0.2
;MAXX:204.6
;MAXY:180.55
;MAXZ:8.6
;Generated with Cura_SteamEngine master
M140 S75
M105
M190 S75
M104 S215
M105
M109 S215
M82 ;absolute extrusion mode
; Ender 3 Custom Start G-code
G92 E0 ; Reset Extruder
G28 ; Home all axes
G1 Z2.0 F3000 ; Move Z Axis up little to prevent scratching of Heat Bed
G1 X0.1 Y20 Z0.3 F5000.0 ; Move to start position
G1 X0.1 Y200.0 Z0.3 F1500.0 E15 ; Draw the first line
G1 X0.4 Y200.0 Z0.3 F5000.0 ; Move to side a little
G1 X0.4 Y20 Z0.3 F1500.0 E30 ; Draw the second line
G92 E0 ; Reset Extruder
G1 Z2.0 F3000 ; Move Z Axis up little to prevent scratching of Heat Bed
G1 X5 Y20 Z0.3 F5000.0 ; Move over to prevent blob squish
G92 E0
G92 E0
G1 F2700 E-5
;LAYER_COUNT:43
;LAYER:0
M107
G0 F7500 X35.85 Y56.319 Z0.2
;TYPE:SKIRT
G1 F2700 E0
G1 F1200 X36.689 Y55.83 E0.0323
G1 X37.566 Y55.411 E0.06463
G1 X38.474 Y55.066 E0.09693
G1 X39.407 Y54.797 E0.12923
G1 X40.359 Y54.605 E0.16153
G1 X41.324 Y54.492 E0.19385
G1 X41.878 Y54.464 E0.21229
G1 X42.199 Y54.455 E0.22298
G1 X42.53 Y54.45 E0.23399
G1 X106.493 Y54.45 E2.3614
G1 X107.362 Y54.461 E2.39031
G1 X108.332 Y54.515 E2.42262
G1 X109.352 Y54.659 E2.45688
G1 X110.75 Y54.92 E2.50418
G1 X110.995 Y54.969 E2.51249
G1 X113.461 Y55.391 E2.59571
G1 X115.92 Y55.739 E2.67831
G1 X118.391 Y56.019 E2.76102
G1 X120.909 Y56.233 E2.84507
G1 X123.34 Y56.369 E2.92605
G1 X127.188 Y56.45 E3.05407
G1 X148.091 Y56.45 E3.7493
G1 X150.7 Y56.413 E3.83609
G1 X153.178 Y56.308 E3.91858
G1 X155.661 Y56.132 E4.00137
G1 X158.117 Y55.888 E4.08346
G1 X160.626 Y55.567 E4.16759
G1 X163.075 Y55.182 E4.25004
G1 X165.881 Y54.659 E4.34498
G1 X166.843 Y54.52 E4.37731
G1 X167.713 Y54.464 E4.4063
G1 X168.033 Y54.455 E4.41695
G1 X168.365 Y54.45 E4.428
G1 X192.245 Y54.451 E5.22225
G1 X192.943 Y54.46 E5.24547
G1 X193.913 Y54.512 E5.27777
G1 X194.875 Y54.645 E5.31007
G1 X195.824 Y54.855 E5.3424
G1 X196.751 Y55.143 E5.37469
G1 X197.652 Y55.507 E5.40701
G1 X198.52 Y55.943 E5.43932
G1 X199.349 Y56.449 E5.47162
G1 X200.134 Y57.022 E5.50394
G1 X200.869 Y57.657 E5.53625
G1 X201.549 Y58.351 E5.56857
G1 X202.17 Y59.098 E5.60088
G1 X202.727 Y59.894 E5.63319
G1 X203.217 Y60.732 E5.66548
G1 X203.636 Y61.609 E5.6978
G1 X203.982 Y62.516 E5.73009
G1 X204.252 Y63.45 E5.76243
G1 X204.444 Y64.402 E5.79473
G1 X204.557 Y65.367 E5.82704
G1 X204.586 Y65.92 E5.84546
G1 X204.595 Y66.233 E5.85588
G1 X204.6 Y66.572 E5.86715
G1 X204.599 Y168.16 E9.24598
G1 X204.59 Y168.887 E9.27017
G1 X204.538 Y169.857 E9.30247
G1 X204.406 Y170.82 E9.3348
G1 X204.196 Y171.768 E9.3671
G1 X203.909 Y172.696 E9.39941
G1 X203.546 Y173.597 E9.43171
G1 X203.11 Y174.465 E9.46402
G1 X202.604 Y175.294 E9.49632
G1 X202.032 Y176.079 E9.52863
G1 X201.397 Y176.814 E9.56094
G1 X200.704 Y177.495 E9.59325
G1 X199.957 Y178.116 E9.62556
G1 X199.161 Y178.674 E9.65789
G1 X198.323 Y179.164 E9.69018
G1 X197.447 Y179.584 E9.72249
G1 X196.539 Y179.93 E9.75481
G1 X195.606 Y180.2 E9.78711
G1 X194.654 Y180.393 E9.81942
G1 X193.689 Y180.507 E9.85174
G1 X193.122 Y180.536 E9.87062
G1 X192.801 Y180.545 E9.88131
G1 X192.47 Y180.55 E9.89232
G1 X168.588 Y180.549 E10.68663
G1 X167.889 Y180.539 E10.70989
G1 X166.919 Y180.485 E10.7422
G1 X165.903 Y180.342 E10.77632
G1 X164.5 Y180.08 E10.82379
G1 X164.255 Y180.031 E10.8321
G1 X161.789 Y179.609 E10.91532
G1 X159.33 Y179.261 E10.99792
G1 X156.859 Y178.981 E11.08063
G1 X154.341 Y178.767 E11.16468
G1 X151.91 Y178.631 E11.24566
G1 X148.062 Y178.55 E11.37368
G1 X127.144 Y178.55 E12.06941
G1 X124.535 Y178.587 E12.1562
G1 X122.057 Y178.692 E12.23869
G1 X119.574 Y178.868 E12.32148
G1 X117.118 Y179.112 E12.40357
G1 X114.609 Y179.433 E12.4877
G1 X112.16 Y179.818 E12.57015
G1 X109.354 Y180.341 E12.66509
G1 X108.392 Y180.48 E12.69742
G1 X107.522 Y180.536 E12.72641
G1 X107.202 Y180.545 E12.73706
G1 X106.87 Y180.55 E12.7481
G1 X42.755 Y180.549 E14.88058
G1 X42.057 Y180.54 E14.9038
G1 X41.087 Y180.488 E14.9361
G1 X40.125 Y180.355 E14.9684
G1 X39.176 Y180.145 E15.00073
G1 X38.249 Y179.857 E15.03302
G1 X37.348 Y179.493 E15.06534
G1 X36.48 Y179.057 E15.09765
G1 X35.651 Y178.551 E15.12995
G1 X34.866 Y177.978 E15.16227
G1 X34.131 Y177.343 E15.19458
G1 X33.451 Y176.649 E15.2269
G1 X32.83 Y175.902 E15.25921
G1 X32.273 Y175.106 E15.29152
G1 X31.783 Y174.268 E15.32381
G1 X31.364 Y173.391 E15.35613
G1 X31.018 Y172.484 E15.38842
G1 X30.748 Y171.55 E15.42076
G1 X30.556 Y170.598 E15.45306
G1 X30.443 Y169.633 E15.48537
G1 X30.413 Y169.06 E15.50446
G1 X30.404 Y168.727 E15.51554
G1 X30.4 Y168.408 E15.52615
G1 X30.401 Y66.764 E18.90684
G1 X30.41 Y66.099 E18.92896
G1 X30.463 Y65.129 E18.96127
G1 X30.596 Y64.167 E18.99357
G1 X30.807 Y63.219 E19.02587
G1 X31.096 Y62.291 E19.0582
G1 X31.46 Y61.391 E19.09049
G1 X31.897 Y60.523 E19.12281
G1 X32.404 Y59.694 E19.15513
G1 X32.977 Y58.91 E19.18743
G1 X33.612 Y58.176 E19.21971
G1 X34.306 Y57.496 E19.25203
G1 X35.054 Y56.876 E19.28434
G1 X35.85 Y56.319 E19.31666
G0 F7500 X36.232 Y56.552
G1 F1200 X37.065 Y56.086 E19.3484
G1 X37.934 Y55.691 E19.38015
G1 X38.833 Y55.37 E19.4119
G1 X39.756 Y55.126 E19.44365
G1 X40.697 Y54.96 E19.47544
G1 X41.889 Y54.863 E19.51521
G1 X42.21 Y54.854 E19.52589
G1 X42.53 Y54.85 E19.53654
G1 X106.493 Y54.85 E21.66396
G1 X107.357 Y54.861 E21.69269
G1 X108.31 Y54.915 E21.72444
G1 X109.279 Y55.052 E21.75699
G1 X110.671 Y55.312 E21.80409
G1 X110.921 Y55.362 E21.81257
G1 X113.403 Y55.787 E21.89632
G1 X115.856 Y56.134 E21.97872
G1 X118.384 Y56.42 E22.06334
G1 X120.851 Y56.63 E22.14569
G1 X123.338 Y56.77 E22.22854
G1 X127.18 Y56.85 E22.35635
G1 X148.097 Y56.85 E23.05206
G1 X150.687 Y56.813 E23.13821
G1 X153.222 Y56.706 E23.2226
G1 X155.692 Y56.531 E23.30496
G1 X158.171 Y56.285 E23.38781
G1 X160.672 Y55.965 E23.47167
G1 X163.145 Y55.576 E23.55494
G1 X165.955 Y55.052 E23.65001
G1 X166.9 Y54.917 E23.68176
G1 X167.725 Y54.864 E23.70926
G1 X168.045 Y54.855 E23.7199
G1 X168.365 Y54.85 E23.73055
G1 X192.24 Y54.851 E24.52463
G1 X192.938 Y54.86 E24.54785
G1 X193.891 Y54.912 E24.5796
G1 X194.837 Y55.044 E24.61136
G1 X195.768 Y55.255 E24.64311
G1 X196.679 Y55.542 E24.67488
G1 X197.562 Y55.905 E24.70664
G1 X198.411 Y56.341 E24.73838
G1 X199.222 Y56.846 E24.77016
G1 X199.987 Y57.417 E24.80191
G1 X200.701 Y58.05 E24.83364
G1 X201.361 Y58.741 E24.86542
G1 X201.96 Y59.484 E24.89717
G1 X202.494 Y60.275 E24.92891
G1 X202.961 Y61.108 E24.96067
G1 X203.356 Y61.977 E24.99242
G1 X203.678 Y62.876 E25.02418
G1 X203.922 Y63.799 E25.05594
G1 X204.089 Y64.739 E25.08769
G1 X204.186 Y65.931 E25.12747
G1 X204.195 Y66.244 E25.13788
G1 X204.2 Y66.572 E25.14879
G1 X204.199 Y168.155 E28.52746
G1 X204.19 Y168.882 E28.55164
G1 X204.138 Y169.835 E28.58338
G1 X204.007 Y170.781 E28.61515
G1 X203.797 Y171.713 E28.64692
G1 X203.51 Y172.623 E28.67866
G1 X203.147 Y173.506 E28.71041
G1 X202.712 Y174.356 E28.74217
G1 X202.207 Y175.167 E28.77395
G1 X201.637 Y175.932 E28.80568
G1 X201.004 Y176.647 E28.83744
G1 X200.314 Y177.307 E28.8692
G1 X199.57 Y177.906 E28.90097
G1 X198.78 Y178.441 E28.9327
G1 X197.947 Y178.908 E28.96446
G1 X197.078 Y179.304 E28.99622
G1 X196.179 Y179.626 E29.02799
G1 X195.256 Y179.871 E29.05975
G1 X194.316 Y180.038 E29.0915
G1 X193.111 Y180.137 E29.13172
G1 X192.79 Y180.146 E29.1424
G1 X192.47 Y180.15 E29.15304
G1 X168.594 Y180.149 E29.94716
G1 X167.895 Y180.139 E29.97041
G1 X166.942 Y180.085 E30.00216
G1 X165.976 Y179.948 E30.03461
G1 X164.579 Y179.688 E30.08187
G1 X164.329 Y179.638 E30.09035
G1 X161.847 Y179.213 E30.1741
G1 X159.394 Y178.866 E30.2565
G1 X156.866 Y178.58 E30.34112
G1 X154.399 Y178.37 E30.42347
G1 X151.912 Y178.23 E30.50632
G1 X148.07 Y178.15 E30.63413
G1 X127.138 Y178.15 E31.33033
G1 X124.548 Y178.187 E31.41649
G1 X122.013 Y178.294 E31.50088
G1 X119.543 Y178.469 E31.58323
G1 X117.064 Y178.715 E31.66609
G1 X114.563 Y179.035 E31.74995
G1 X112.09 Y179.424 E31.83322
G1 X109.28 Y179.948 E31.92829
G1 X108.335 Y180.083 E31.96004
G1 X107.51 Y180.136 E31.98754
G1 X107.19 Y180.145 E31.99818
G1 X106.87 Y180.15 E32.00883
G1 X42.76 Y180.149 E34.14113
G1 X42.062 Y180.14 E34.16435
G1 X41.109 Y180.088 E34.1961
G1 X40.163 Y179.956 E34.22787
G1 X39.232 Y179.745 E34.25962
G1 X38.321 Y179.458 E34.29138
G1 X37.438 Y179.095 E34.32314
G1 X36.589 Y178.659 E34.35488
G1 X35.778 Y178.154 E34.38666
G1 X35.013 Y177.583 E34.41841
G1 X34.299 Y176.95 E34.45014
G1 X33.639 Y176.259 E34.48193
G1 X33.04 Y175.516 E34.51367
G1 X32.506 Y174.725 E34.54541
G1 X32.039 Y173.892 E34.57717
G1 X31.644 Y173.023 E34.60892
G1 X31.322 Y172.124 E34.64068
G1 X31.078 Y171.201 E34.67244
G1 X30.911 Y170.261 E34.70419
G1 X30.813 Y169.049 E34.74463
G1 X30.804 Y168.716 E34.75571
G1 X30.8 Y168.408 E34.76596
G1 X30.801 Y66.77 E38.14645
G1 X30.81 Y66.105 E38.16857
G1 X30.863 Y65.151 E38.20035
G1 X30.995 Y64.206 E38.23209
G1 X31.207 Y63.275 E38.26385
G1 X31.495 Y62.365 E38.29559
G1 X31.858 Y61.482 E38.32735
G1 X32.294 Y60.632 E38.35912
G1 X32.8 Y59.822 E38.39088
G1 X33.372 Y59.058 E38.42263
G1 X34.005 Y58.343 E38.45439
G1 X34.696 Y57.685 E38.48612
G1 X35.44 Y57.086 E38.51789
G1 X36.232 Y56.552 E38.54966
G0 F7500 X36.612 Y56.789
G1 F1200 X37.439 Y56.347 E38.58085
G1 X38.301 Y55.977 E38.61205
G1 X39.191 Y55.681 E38.64325
G1 X40.103 Y55.463 E38.67444
G1 X41.03 Y55.322 E38.70562
G1 X41.901 Y55.263 E38.73466
G1 X42.222 Y55.254 E38.74534
G1 X42.53 Y55.25 E38.75558
G1 X106.493 Y55.25 E40.883
G1 X107.351 Y55.261 E40.91154
G1 X108.287 Y55.314 E40.94272
G1 X109.206 Y55.446 E40.9736
G1 X110.593 Y55.705 E41.02053
G1 X110.847 Y55.756 E41.02915
G1 X113.317 Y56.178 E41.11249
G1 X115.826 Y56.534 E41.19678
G1 X118.303 Y56.814 E41.27969
G1 X120.833 Y57.029 E41.36414
G1 X123.307 Y57.168 E41.44655
G1 X127.219 Y57.25 E41.5767
G1 X148.102 Y57.25 E42.27127
G1 X150.71 Y57.213 E42.35802
G1 X153.232 Y57.106 E42.44198
G1 X155.727 Y56.929 E42.52517
G1 X158.225 Y56.681 E42.60866
G1 X160.714 Y56.363 E42.69212
G1 X163.243 Y55.965 E42.77727
G1 X166.028 Y55.446 E42.87149
G1 X166.956 Y55.313 E42.90267
G1 X167.736 Y55.263 E42.92867
G1 X168.056 Y55.254 E42.93932
G1 X168.365 Y55.25 E42.9496
G1 X192.235 Y55.251 E43.74351
G1 X192.933 Y55.26 E43.76673
G1 X193.869 Y55.312 E43.79791
G1 X194.798 Y55.444 E43.82912
G1 X195.712 Y55.654 E43.86031
G1 X196.605 Y55.941 E43.89151
G1 X197.47 Y56.304 E43.92271
G1 X198.301 Y56.738 E43.95389
G1 X199.092 Y57.242 E43.98509
G1 X199.837 Y57.812 E44.01629
G1 X200.531 Y58.443 E44.04748
G1 X201.168 Y59.13 E44.07865
G1 X201.745 Y59.87 E44.10986
G1 X202.257 Y60.656 E44.14106
G1 X202.7 Y61.483 E44.17226
G1 X203.071 Y62.344 E44.20344
G1 X203.367 Y63.234 E44.23464
G1 X203.586 Y64.146 E44.26583
G1 X203.727 Y65.073 E44.29702
G1 X203.786 Y65.943 E44.32602
G1 X203.795 Y66.256 E44.33644
G1 X203.8 Y66.572 E44.34695
G1 X203.799 Y168.15 E47.72545
G1 X203.79 Y168.877 E47.74963
G1 X203.739 Y169.814 E47.78084
G1 X203.607 Y170.742 E47.81202
G1 X203.398 Y171.656 E47.8432
G1 X203.111 Y172.549 E47.8744
G1 X202.749 Y173.415 E47.90562
G1 X202.315 Y174.246 E47.9368
G1 X201.811 Y175.037 E47.96799
G1 X201.242 Y175.782 E47.99917
G1 X200.611 Y176.477 E48.03039
G1 X199.924 Y177.115 E48.06158
G1 X199.185 Y177.692 E48.09276
G1 X198.399 Y178.204 E48.12396
G1 X197.573 Y178.647 E48.15514
G1 X196.711 Y179.019 E48.18636
G1 X195.822 Y179.315 E48.21753
G1 X194.91 Y179.535 E48.24873
G1 X193.983 Y179.676 E48.27992
G1 X193.099 Y179.737 E48.30939
G1 X192.778 Y179.746 E48.32007
G1 X192.47 Y179.75 E48.33031
G1 X168.6 Y179.749 E49.12423
G1 X167.901 Y179.739 E49.14748
G1 X166.964 Y179.685 E49.1787
G1 X166.049 Y179.555 E49.20944
G1 X164.657 Y179.295 E49.25654
G1 X164.403 Y179.244 E49.26515
G1 X161.933 Y178.822 E49.3485
G1 X159.424 Y178.466 E49.43278
G1 X156.947 Y178.186 E49.51569
G1 X154.417 Y177.971 E49.60014
G1 X151.943 Y177.832 E49.68256
G1 X148.031 Y177.75 E49.8127
G1 X127.133 Y177.75 E50.50777
G1 X124.525 Y177.787 E50.59452
G1 X122.003 Y177.894 E50.67848
G1 X119.508 Y178.071 E50.76167
G1 X117.01 Y178.319 E50.84517
G1 X114.521 Y178.637 E50.92862
G1 X111.992 Y179.035 E51.01377
G1 X109.207 Y179.554 E51.108
G1 X108.279 Y179.687 E51.13918
G1 X107.499 Y179.737 E51.16517
G1 X107.179 Y179.746 E51.17582
G1 X106.87 Y179.75 E51.1861
G1 X42.765 Y179.749 E53.31824
G1 X42.067 Y179.74 E53.34146
G1 X41.131 Y179.688 E53.37264
G1 X40.202 Y179.556 E53.40385
G1 X39.288 Y179.346 E53.43504
G1 X38.395 Y179.059 E53.46624
G1 X37.53 Y178.696 E53.49744
G1 X36.699 Y178.262 E53.52862
G1 X35.908 Y177.758 E53.55981
G1 X35.163 Y177.188 E53.59101
G1 X34.469 Y176.557 E53.62221
G1 X33.832 Y175.87 E53.65337
G1 X33.255 Y175.13 E53.68458
G1 X32.743 Y174.344 E53.71578
G1 X32.3 Y173.517 E53.74699
G1 X31.929 Y172.656 E53.77817
G1 X31.633 Y171.766 E53.80936
G1 X31.414 Y170.854 E53.84056
G1 X31.273 Y169.927 E53.87175
G1 X31.213 Y169.038 E53.90138
G1 X31.204 Y168.705 E53.91246
G1 X31.2 Y168.408 E53.92234
G1 X31.201 Y66.775 E57.30267
G1 X31.21 Y66.11 E57.32479
G1 X31.263 Y65.174 E57.35597
G1 X31.395 Y64.245 E57.38718
G1 X31.606 Y63.331 E57.41838
G1 X31.894 Y62.439 E57.44955
G1 X32.257 Y61.574 E57.48075
G1 X32.692 Y60.743 E57.51195
G1 X33.196 Y59.953 E57.54312
G1 X33.766 Y59.208 E57.57432
G1 X34.398 Y58.514 E57.60554
G1 X35.086 Y57.877 E57.63672
G1 X35.826 Y57.301 E57.66791
G1 X36.612 Y56.789 E57.69911
G0 F7500 X36.21 Y57.52
G1 F1200 X36.991 Y57.032 E57.72974
G1 X37.811 Y56.614 E57.76035
G1 X38.665 Y56.269 E57.79099
G1 X39.545 Y55.999 E57.8216
G1 X40.445 Y55.807 E57.85221
G1 X41.359 Y55.693 E57.88285
G1 X41.912 Y55.663 E57.90127
G1 X42.233 Y55.654 E57.91195
G1 X42.53 Y55.65 E57.92183
G1 X106.493 Y55.65 E60.04924
G1 X107.345 Y55.661 E60.07758
G1 X108.264 Y55.714 E60.1082
G1 X109.133 Y55.839 E60.1374
G1 X110.515 Y56.097 E60.18416
G1 X110.773 Y56.148 E60.19291
G1 X113.265 Y56.575 E60.277
G1 X115.761 Y56.929 E60.36085
G1 X118.296 Y57.215 E60.4457
G1 X120.811 Y57.429 E60.52965
G1 X123.276 Y57.568 E60.61177
G1 X127.211 Y57.65 E60.74267
G1 X148.108 Y57.65 E61.43771
G1 X150.733 Y57.613 E61.52503
G1 X153.241 Y57.506 E61.60852
G1 X155.758 Y57.328 E61.69244
G1 X158.282 Y57.078 E61.7768
G1 X160.79 Y56.757 E61.8609
G1 X163.273 Y56.367 E61.9445
G1 X166.101 Y55.839 E62.04018
G1 X167.013 Y55.709 E62.07082
G1 X167.747 Y55.663 E62.09528
G1 X168.067 Y55.654 E62.10593
G1 X168.365 Y55.65 E62.11584
G1 X192.23 Y55.651 E62.9096
G1 X192.928 Y55.66 E62.93281
G1 X193.847 Y55.712 E62.96343
G1 X194.758 Y55.843 E62.99404
G1 X195.654 Y56.053 E63.02465
G1 X196.529 Y56.34 E63.05528
G1 X197.376 Y56.702 E63.08591
G1 X198.188 Y57.136 E63.11654
G1 X198.959 Y57.638 E63.14714
G1 X199.684 Y58.206 E63.17777
G1 X200.357 Y58.835 E63.20841
G1 X200.972 Y59.519 E63.239
G1 X201.526 Y60.254 E63.26961
G1 X202.014 Y61.035 E63.30024
G1 X202.433 Y61.855 E63.33087
G1 X202.779 Y62.708 E63.36149
G1 X203.049 Y63.588 E63.3921
G1 X203.242 Y64.489 E63.42275
G1 X203.356 Y65.402 E63.45335
G1 X203.387 Y65.954 E63.47174
G1 X203.396 Y66.267 E63.48216
G1 X203.4 Y66.572 E63.4923
G1 X203.399 Y168.145 E66.87063
G1 X203.39 Y168.872 E66.89482
G1 X203.339 Y169.791 E66.92543
G1 X203.208 Y170.703 E66.95607
G1 X202.998 Y171.599 E66.98668
G1 X202.712 Y172.474 E67.0173
G1 X202.351 Y173.321 E67.04792
G1 X201.917 Y174.133 E67.07855
G1 X201.415 Y174.905 E67.10917
G1 X200.847 Y175.63 E67.13981
G1 X200.219 Y176.303 E67.17042
G1 X199.535 Y176.919 E67.20104
G1 X198.8 Y177.473 E67.23165
G1 X198.02 Y177.962 E67.26227
G1 X197.2 Y178.381 E67.2929
G1 X196.347 Y178.727 E67.32351
G1 X195.467 Y178.998 E67.35414
G1 X194.567 Y179.191 E67.38475
G1 X193.653 Y179.306 E67.41539
G1 X193.088 Y179.337 E67.43421
G1 X192.767 Y179.346 E67.44489
G1 X192.47 Y179.35 E67.45477
G1 X168.605 Y179.349 E68.24853
G1 X167.906 Y179.339 E68.27178
G1 X166.987 Y179.286 E68.30239
G1 X166.122 Y179.162 E68.33146
G1 X164.735 Y178.903 E68.37839
G1 X164.477 Y178.852 E68.38714
G1 X161.985 Y178.425 E68.47123
G1 X159.489 Y178.071 E68.55508
G1 X156.954 Y177.785 E68.63992
G1 X154.439 Y177.571 E68.72388
G1 X151.974 Y177.432 E68.80599
G1 X148.039 Y177.35 E68.9369
G1 X127.127 Y177.35 E69.63244
G1 X124.502 Y177.387 E69.71975
G1 X121.994 Y177.494 E69.80324
G1 X119.477 Y177.672 E69.88717
G1 X116.953 Y177.922 E69.97153
G1 X114.445 Y178.243 E70.05563
